svgs/gcam.svg

<?xml version="1.0" encoding="UTF-8" standalone="no"?>
<svg
   width="24"
   height="24"
   viewBox="0 0 24 24"
   fill="none"
   version="1.1"
   id="svg7023"
   sodipodi:docname="gcam.svg"
   inkscape:version="1.2.1 (9c6d41e410, 2022-07-14)"
   xmlns:inkscape="http://www.inkscape.org/namespaces/inkscape"
   xmlns:sodipodi="http://sodipodi.sourceforge.net/DTD/sodipodi-0.dtd"
   xmlns="http://www.w3.org/2000/svg"
   xmlns:svg="http://www.w3.org/2000/svg">
  <defs
     id="defs7027" />
  <sodipodi:namedview
     id="namedview7025"
     pagecolor="#ffffff"
     bordercolor="#000000"
     borderopacity="0.25"
     inkscape:showpageshadow="2"
     inkscape:pageopacity="0.0"
     inkscape:pagecheckerboard="0"
     inkscape:deskcolor="#d1d1d1"
     showgrid="false"
     inkscape:zoom="9.8333333"
     inkscape:cx="-5.7966102"
     inkscape:cy="12"
     inkscape:window-width="3072"
     inkscape:window-height="1694"
     inkscape:window-x="1499"
     inkscape:window-y="-11"
     inkscape:window-maximized="1"
     inkscape:current-layer="svg7023" />
  <g
     id="g7148"
     transform="matrix(1.2,0,0,1.2,-2.4,-2.4)">
    <path
       d="m 12,16.2 c 1.7673,0 3.2,-1.4327 3.2,-3.2 0,-1.7673 -1.4327,-3.2 -3.2,-3.2 -1.7673,0 -3.20001,1.4327 -3.20001,3.2 0,1.7673 1.43271,3.2 3.20001,3.2 z"
       fill="#000000"
       id="path7019" />
    <path
       fill-rule="evenodd"
       clip-rule="evenodd"
       d="M 7.17,5 9,3 h 6 l 1.83,2 H 20 c 1.1,0 2,0.9 2,2 v 12 c 0,1.1 -0.9,2 -2,2 H 4 C 2.9,21 2,20.1 2,19 V 7 C 2,5.9 2.9,5 4,5 Z M 7,13 c 0,2.76 2.24,5 5,5 2.76,0 5,-2.24 5,-5 C 17,10.24 14.76,8 12,8 9.24,8 7,10.24 7,13 Z M 19,9 c 0.5523,0 1,-0.44772 1,-1 0,-0.55228 -0.4477,-1 -1,-1 -0.5523,0 -1,0.44772 -1,1 0,0.55228 0.4477,1 1,1 z"
       fill="#000000"
       id="path7021" />
  </g>
</svg>

<?xml version="1.0" encoding="UTF-8" standalone="no"?>
<svg
   width="24"
   height="24"
   viewBox="0 0 24 24"
   fill="none"
   version="1.1"
   id="svg7023"
   sodipodi:docname="gcam.svg"
   inkscape:version="1.2.1 (9c6d41e410, 2022-07-14)"
   xmlns:inkscape="http://www.inkscape.org/namespaces/inkscape"
   xmlns:sodipodi="http://sodipodi.sourceforge.net/DTD/sodipodi-0.dtd"
   xmlns="http://www.w3.org/2000/svg"
   xmlns:svg="http://www.w3.org/2000/svg">
  <defs
     id="defs7027" />
  <sodipodi:namedview
     id="namedview7025"
     pagecolor="#ffffff"
     bordercolor="#000000"
     borderopacity="0.25"
     inkscape:showpageshadow="2"
     inkscape:pageopacity="0.0"
     inkscape:pagecheckerboard="0"
     inkscape:deskcolor="#d1d1d1"
     showgrid="false"
     inkscape:zoom="9.8333333"
     inkscape:cx="3.0508475"
     inkscape:cy="12"
     inkscape:window-width="3072"
     inkscape:window-height="1694"
     inkscape:window-x="-11"
     inkscape:window-y="-11"
     inkscape:window-maximized="1"
     inkscape:current-layer="svg7023" />
  <g
     id="g7148">
    <path
       d="M12 16.2C13.7673 16.2 15.2 14.7673 15.2 13C15.2 11.2327 13.7673 9.8 12 9.8C10.2327 9.8 8.79999 11.2327 8.79999 13C8.79999 14.7673 10.2327 16.2 12 16.2Z"
       fill="black"
       id="path7019" />
    <path
       fill-rule="evenodd"
       clip-rule="evenodd"
       d="M7.17 5L9 3H15L16.83 5H20C21.1 5 22 5.9 22 7V19C22 20.1 21.1 21 20 21H4C2.9 21 2 20.1 2 19V7C2 5.9 2.9 5 4 5H7.17ZM7 13C7 15.76 9.24 18 12 18C14.76 18 17 15.76 17 13C17 10.24 14.76 8 12 8C9.24 8 7 10.24 7 13ZM19 9C19.5523 9 20 8.55228 20 8C20 7.44772 19.5523 7 19 7C18.4477 7 18 7.44772 18 8C18 8.55228 18.4477 9 19 9Z"
       fill="black"
       id="path7021" />
  </g>
</svg>
